tela-icon-theme/src/symbolic/status/notification-disabled-symbolic.svg

<svg width="16" height="16" version="1.1" xmlns="http://www.w3.org/2000/svg">
 <path d="m8 1c-0.59143 5.84e-4 -1.0531 0.51154-0.994 1.1-2.3333 0.46852-4.0106 2.5201-4.006 4.9v4.5l-2 2v0.5h14v-0.5l-2-2v-4.5c0.004981-2.38-1.6725-4.4318-4.006-4.9 0.059143-0.58846-0.40257-1.0994-0.994-1.1zm0 2c2.2091 0 4 1.7909 4 4v4.922l1 1.078h-10l1-1.078v-4.922c0-2.2091 1.7909-4 4-4zm-1.73 12c0.3569 0.61817 1.0162 0.99927 1.73 1 0.71344-0.0011 1.3723-0.38214 1.729-1z" fill="#5d656b" opacity=".35" stroke-linecap="round" stroke-width="3"/>
</svg>

<svg width="16" height="16" version="1.1" xmlns="http://www.w3.org/2000/svg">
 <path d="M8 1a1 1 0 0 0-.994 1.1A4.988 4.988 0 0 0 3 7v4.5l-2 2v.5h14v-.5l-2-2V7a4.987 4.987 0 0 0-4.006-4.9A1 1 0 0 0 8 1zm0 2a4 4 0 0 1 4 4v4.922L13 13H3l1-1.078V7a4 4 0 0 1 4-4zm0 1a3 3 0 0 0-3 3v5h6V7a3 3 0 0 0-3-3zM6.27 15A2 2 0 0 0 8 16a2 2 0 0 0 1.729-1z" fill="#5d656b" opacity=".35" stroke-linecap="round" stroke-width="3"/>
</svg>
